icon-themes/sifr_svg/cmd/nl/lc_underlinedouble.svg

<svg viewBox="0 0 24 24" xmlns="http://www.w3.org/2000/svg"><path d="m9 2c-2.209139 0-4 1.790861-4 4v9c0 .732317.2110968 1.40961.5546875 2h12.8906245c.343591-.59039.554688-1.267683.554688-2v-9c0-2.209139-1.790861-4-4-4zm0 3h6c.552285 0 1 .447715 1 1v9c0 .552285-.447715 1-1 1h-6c-.5522847 0-1-.447715-1-1v-9c0-.552285.447715-1 1-1zm-7 13v2h20v-2zm0 3v2h20v-2z" fill="#555753"/></svg>

<svg xmlns="http://www.w3.org/2000/svg" viewBox="0 0 24 24">
  <path
     style="fill:#555753"
     d="M 9 2 C 6.790861 2 5 3.790861 5 6 L 5 15 C 5 15.732317 5.2110968 16.40961 5.5546875 17 L 18.445312 17 C 18.788903 16.40961 19 15.732317 19 15 L 19 6 C 19 3.790861 17.209139 2 15 2 L 9 2 z M 9 5 L 15 5 C 15.552285 5 16 5.447715 16 6 L 16 15 C 16 15.552285 15.552285 16 15 16 L 9 16 C 8.4477153 16 8 15.552285 8 15 L 8 6 C 8 5.447715 8.447715 5 9 5 z M 2 18 L 2 20 L 22 20 L 22 18 L 2 18 z M 2 21 L 2 23 L 22 23 L 22 21 L 2 21 z "
     />
</svg>
